static/images/logos/lateshipment.svg

<svg width="217" height="50" viewBox="0 0 217 50" fill="none" xmlns="http://www.w3.org/2000/svg">
<path opacity="0.4" d="M7.97852 31.6319V12.6904L22.4339 18.1735V37.6134L7.97852 31.6319Z" fill="#0D0D0D"/>
<path opacity="0.4" d="M29.8926 24.9045V22.163L44.3479 16.4306V19.1721L29.8926 24.9045Z" fill="#0D0D0D"/>
<path opacity="0.4" d="M23.418 37.8658V34.875L38.1225 29.2383V31.9798L23.418 37.8658Z" fill="#0D0D0D"/>
<path d="M1.49414 35.6218V9.95117L6.97718 12.1942V32.3818L22.4294 39.111V44.3448L1.49414 35.6218Z" fill="#0D0D0D"/>
<path d="M23.4277 44.3446V39.1107L38.88 32.6309V27.8955L23.4277 33.6277V18.1755L44.363 10.2002V15.434L28.9107 21.4155V26.4001L44.363 20.4186V35.8707L23.4277 44.3446Z" fill="#0D0D0D"/>
<path opacity="0.2" d="M22.927 17.1782L2.49023 9.20292L23.4255 4.7168L43.8622 9.20292L22.927 17.1782Z" fill="#0D0D0D"/>
<path d="M62.6402 29.7292V31.0006H56.7454V29.7292H62.6402ZM57.0531 19.2107V31.0006H55.4902V19.2107H57.0531ZM68.9562 20.2553L65.0534 31.0006H63.4581L67.9522 19.2107H68.9806L68.9562 20.2553ZM72.2276 31.0006L68.3166 20.2553L68.2922 19.2107H69.3206L73.8309 31.0006H72.2276ZM72.0251 26.6361V27.9155H65.4015V26.6361H72.0251ZM78.7136 19.2107V31.0006H77.1751V19.2107H78.7136ZM82.5032 19.2107V20.4901H73.3936V19.2107H82.5032ZM91.7424 29.7292V31.0006H85.4992V29.7292H91.7424ZM85.815 19.2107V31.0006H84.2522V19.2107H85.815ZM90.9164 24.2797V25.551H85.4992V24.2797H90.9164ZM91.6614 19.2107V20.4901H85.4992V19.2107H91.6614ZM99.4996 27.9155C99.4996 27.705 99.4672 27.516 99.4025 27.3486C99.3431 27.1758 99.2297 27.0193 99.0624 26.879C98.895 26.7332 98.6602 26.5902 98.3579 26.4498C98.0556 26.3095 97.6642 26.1637 97.1837 26.0126C96.6494 25.8398 96.1419 25.6455 95.6615 25.4296C95.1864 25.2136 94.7654 24.9626 94.3982 24.6765C94.0366 24.385 93.7505 24.0476 93.54 23.6643C93.3349 23.2811 93.2322 22.8357 93.2322 22.3282C93.2322 21.837 93.3402 21.3917 93.5561 20.9922C93.7721 20.5873 94.0744 20.2418 94.4631 19.9557C94.8517 19.6642 95.3106 19.4402 95.8396 19.2836C96.374 19.1271 96.9597 19.0488 97.5967 19.0488C98.4659 19.0488 99.2244 19.2053 99.8721 19.5185C100.52 19.8316 101.022 20.2607 101.378 20.806C101.74 21.3512 101.921 21.9747 101.921 22.6765H99.5077C99.5077 22.331 99.4349 22.0287 99.2891 21.7696C99.1487 21.505 98.9329 21.2972 98.6414 21.1461C98.3552 20.9948 97.9935 20.9193 97.5562 20.9193C97.1352 20.9193 96.7844 20.9841 96.5036 21.1136C96.2229 21.2378 96.0124 21.4078 95.872 21.6238C95.7316 21.8343 95.6615 22.0718 95.6615 22.3363C95.6615 22.5361 95.7101 22.717 95.8072 22.8788C95.9097 23.0408 96.061 23.192 96.2607 23.3323C96.4604 23.4727 96.706 23.605 96.9975 23.7291C97.289 23.8532 97.6265 23.9747 98.0097 24.0935C98.6521 24.2878 99.2162 24.5065 99.7021 24.7493C100.193 24.9923 100.604 25.265 100.933 25.5672C101.262 25.8695 101.51 26.2123 101.678 26.5956C101.845 26.9788 101.929 27.4135 101.929 27.8992C101.929 28.4121 101.829 28.871 101.629 29.2758C101.429 29.6807 101.141 30.0235 100.763 30.3042C100.385 30.5848 99.9342 30.7981 99.4106 30.9438C98.887 31.0896 98.3012 31.1625 97.6535 31.1625C97.0704 31.1625 96.4955 31.087 95.9287 30.9358C95.3619 30.7792 94.8464 30.5445 94.3821 30.2313C93.9232 29.9182 93.5561 29.5187 93.2809 29.0328C93.0055 28.5471 92.8679 27.9721 92.8679 27.3082H95.3052C95.3052 27.6752 95.3619 27.9856 95.4752 28.2393C95.5886 28.4931 95.7479 28.6982 95.953 28.8547C96.1635 29.0113 96.4119 29.1247 96.698 29.1948C96.9895 29.265 97.308 29.3001 97.6535 29.3001C98.0745 29.3001 98.42 29.2407 98.6899 29.122C98.9652 29.0032 99.1676 28.8386 99.2972 28.6281C99.4321 28.4175 99.4996 28.18 99.4996 27.9155ZM111.443 24.0125V25.9073H105.289V24.0125H111.443ZM106.01 19.2107V31.0006H103.581V19.2107H106.01ZM113.176 19.2107V31.0006H110.755V19.2107H113.176ZM117.873 19.2107V31.0006H115.451V19.2107H117.873ZM124.739 26.798H121.735V24.9032H124.739C125.203 24.9032 125.581 24.8276 125.873 24.6765C126.164 24.52 126.377 24.304 126.512 24.0287C126.647 23.7533 126.714 23.443 126.714 23.0975C126.714 22.7466 126.647 22.42 126.512 22.1177C126.377 21.8155 126.164 21.5725 125.873 21.389C125.581 21.2055 125.203 21.1136 124.739 21.1136H122.577V31.0006H120.148V19.2107H124.739C125.662 19.2107 126.453 19.3781 127.112 19.7128C127.776 20.0421 128.283 20.4982 128.634 21.0812C128.984 21.6642 129.161 22.331 129.161 23.0813C129.161 23.8425 128.984 24.5011 128.634 25.0571C128.283 25.6131 127.776 26.0422 127.112 26.3446C126.453 26.6468 125.662 26.798 124.739 26.798ZM131.946 19.2107H134.003L137.031 27.8668L140.059 19.2107H142.116L137.857 31.0006H136.206L131.946 19.2107ZM130.837 19.2107H132.886L133.258 27.6482V31.0006H130.837V19.2107ZM141.177 19.2107H143.233V31.0006H140.804V27.6482L141.177 19.2107ZM153.274 29.1057V31.0006H146.999V29.1057H153.274ZM147.792 19.2107V31.0006H145.363V19.2107H147.792ZM152.457 24.0125V25.8587H146.999V24.0125H152.457ZM153.266 19.2107V21.1136H146.999V19.2107H153.266ZM164.287 19.2107V31.0006H161.858L157.121 23.0975V31.0006H154.692V19.2107H157.121L161.866 27.122V19.2107H164.287ZM171.428 19.2107V31.0006H169.008V19.2107H171.428ZM175.057 19.2107V21.1136H165.437V19.2107H175.057ZM176.554 30.207C176.554 29.9533 176.633 29.7401 176.789 29.5673C176.951 29.3892 177.183 29.3001 177.486 29.3001C177.788 29.3001 178.017 29.3892 178.174 29.5673C178.336 29.7401 178.417 29.9533 178.417 30.207C178.417 30.4553 178.336 30.6658 178.174 30.8386C178.017 31.0113 177.788 31.0977 177.486 31.0977C177.183 31.0977 176.951 31.0113 176.789 30.8386C176.633 30.6658 176.554 30.4553 176.554 30.207ZM188.247 27.2515H189.802C189.721 27.9965 189.507 28.6631 189.162 29.2516C188.817 29.84 188.328 30.3068 187.697 30.6523C187.064 30.9925 186.277 31.1625 185.332 31.1625C184.641 31.1625 184.012 31.033 183.446 30.7738C182.884 30.5147 182.401 30.1476 181.996 29.6726C181.591 29.1921 181.278 28.6172 181.057 27.9478C180.841 27.2731 180.733 26.5227 180.733 25.6967V24.5226C180.733 23.6967 180.841 22.9491 181.057 22.2797C181.278 21.6048 181.593 21.0272 182.004 20.5468C182.419 20.0663 182.919 19.6966 183.502 19.4375C184.084 19.1783 184.741 19.0488 185.469 19.0488C186.361 19.0488 187.113 19.2162 187.728 19.5508C188.344 19.8856 188.822 20.3498 189.162 20.9436C189.507 21.532 189.721 22.2148 189.802 22.9922H188.247C188.172 22.4416 188.031 21.9692 187.826 21.5752C187.621 21.1757 187.329 20.868 186.952 20.6521C186.573 20.4362 186.079 20.3282 185.469 20.3282C184.946 20.3282 184.484 20.4281 184.084 20.6278C183.691 20.8276 183.359 21.111 183.089 21.4781C182.824 21.8451 182.624 22.2851 182.489 22.798C182.354 23.3107 182.287 23.8802 182.287 24.5065V25.6967C182.287 26.2743 182.347 26.817 182.466 27.3243C182.589 27.8318 182.776 28.2771 183.024 28.6605C183.272 29.0437 183.588 29.346 183.972 29.5673C184.354 29.7832 184.808 29.8912 185.332 29.8912C185.996 29.8912 186.524 29.786 186.919 29.5755C187.313 29.3648 187.609 29.0626 187.809 28.6685C188.014 28.2745 188.161 27.8021 188.247 27.2515ZM201.008 24.7332V25.4781C201.008 26.3635 200.898 27.157 200.677 27.8587C200.456 28.5606 200.137 29.1571 199.721 29.6483C199.306 30.1396 198.806 30.5147 198.223 30.7738C197.646 31.033 196.998 31.1625 196.279 31.1625C195.583 31.1625 194.943 31.033 194.361 30.7738C193.783 30.5147 193.281 30.1396 192.854 29.6483C192.433 29.1571 192.107 28.5606 191.874 27.8587C191.642 27.157 191.527 26.3635 191.527 25.4781V24.7332C191.527 23.8478 191.639 23.057 191.867 22.3606C192.098 21.6588 192.426 21.0623 192.847 20.5711C193.267 20.0745 193.767 19.6966 194.344 19.4375C194.927 19.1783 195.567 19.0488 196.263 19.0488C196.982 19.0488 197.629 19.1783 198.207 19.4375C198.789 19.6966 199.289 20.0745 199.704 20.5711C200.126 21.0623 200.447 21.6588 200.668 22.3606C200.896 23.057 201.008 23.8478 201.008 24.7332ZM199.462 25.4781V24.717C199.462 24.0152 199.389 23.3945 199.243 22.8546C199.103 22.3147 198.896 21.8613 198.619 21.4942C198.344 21.1271 198.007 20.8491 197.608 20.6602C197.213 20.4712 196.766 20.3768 196.263 20.3768C195.778 20.3768 195.338 20.4712 194.943 20.6602C194.554 20.8491 194.221 21.1271 193.939 21.4942C193.664 21.8613 193.451 22.3147 193.299 22.8546C193.148 23.3945 193.073 24.0152 193.073 24.717V25.4781C193.073 26.1853 193.148 26.8115 193.299 27.3567C193.451 27.8966 193.667 28.3527 193.948 28.7252C194.233 29.0923 194.571 29.3703 194.959 29.5592C195.354 29.7482 195.793 29.8426 196.279 29.8426C196.787 29.8426 197.238 29.7482 197.632 29.5592C198.026 29.3703 198.358 29.0923 198.628 28.7252C198.903 28.3527 199.111 27.8966 199.252 27.3567C199.392 26.8115 199.462 26.1853 199.462 25.4781ZM203.843 19.2107H205.357L209.219 28.8223L213.073 19.2107H214.596L209.802 31.0006H208.621L203.843 19.2107ZM203.348 19.2107H204.684L204.903 26.4012V31.0006H203.348V19.2107ZM213.746 19.2107H215.082V31.0006H213.527V26.4012L213.746 19.2107Z" fill="#0D0D0D"/>
</svg>

<svg xmlns="http://www.w3.org/2000/svg" width="217" height="50" fill="none" viewBox="0 0 217 50"><path fill="#0d0d0d" d="M7.979 31.632V12.69l14.455 5.484v19.44zM29.893 24.905v-2.742l14.455-5.732v2.741zM23.418 37.866v-2.991l14.705-5.637v2.742z" opacity=".4"/><path fill="#0d0d0d" d="M1.494 35.622V9.952l5.483 2.242v20.188L22.43 39.11v5.234zM23.428 44.345V39.11l15.452-6.48v-4.736l-15.452 5.733V18.176L44.363 10.2v5.234l-15.452 5.982V26.4l15.452-5.981V35.87z"/><path fill="#0d0d0d" d="M22.927 17.178 2.49 9.203l20.935-4.486 20.437 4.486z" opacity=".2"/><path fill="#0d0d0d" d="M62.64 29.73V31h-5.895v-1.27zm-5.587-10.52V31H55.49V19.21zm11.903 1.045-3.903 10.746h-1.595l4.494-11.79h1.029zm3.272 10.746-3.911-10.746-.025-1.044h1.029L73.83 31zm-.203-4.365v1.28h-6.624v-1.28zm6.689-7.425V31h-1.539V19.21zm3.79 0v1.28h-9.11v-1.28zm9.238 10.518v1.272H85.5v-1.272zm-5.927-10.518V31h-1.563V19.21zm5.101 5.069v1.271H85.5V24.28zm.745-5.07v1.28H85.5v-1.28zm7.839 8.706q0-.316-.097-.567a1.07 1.07 0 0 0-.34-.47 3 3 0 0 0-.705-.43 10 10 0 0 0-1.174-.436 15 15 0 0 1-1.522-.583 6.3 6.3 0 0 1-1.264-.753 3.4 3.4 0 0 1-.858-1.013q-.308-.574-.308-1.336 0-.736.324-1.336.324-.607.907-1.036a4.3 4.3 0 0 1 1.377-.672 6.2 6.2 0 0 1 1.757-.235q1.303 0 2.275.47t1.506 1.287q.543.818.543 1.87h-2.413q0-.517-.219-.906a1.48 1.48 0 0 0-.648-.624q-.43-.227-1.085-.227-.631 0-1.052.195-.422.186-.632.51-.21.316-.21.712 0 .3.145.543.154.243.454.453t.737.397q.436.186 1.012.364.963.292 1.692.656.737.365 1.231.818.493.453.745 1.029.25.574.251 1.303 0 .77-.3 1.377t-.866 1.028a4.1 4.1 0 0 1-1.352.64 6.6 6.6 0 0 1-1.758.219 6.7 6.7 0 0 1-1.724-.227 5.2 5.2 0 0 1-1.547-.705 3.55 3.55 0 0 1-1.101-1.198q-.413-.728-.413-1.725h2.437q0 .551.17.931.17.382.478.616.315.234.745.34.438.105.956.105.63 0 1.036-.178.413-.178.607-.494.203-.316.203-.712m11.943-3.904v1.895h-6.154v-1.895zm-5.433-4.801V31h-2.429V19.21zm7.166 0V31h-2.421V19.21zm4.697 0V31h-2.422V19.21zm6.866 7.587h-3.004v-1.895h3.004q.696 0 1.134-.226.437-.235.639-.648t.202-.931q0-.527-.202-.98a1.64 1.64 0 0 0-.639-.729q-.438-.275-1.134-.275h-2.162V31h-2.429V19.21h4.591q1.385 0 2.373.502.996.494 1.522 1.368t.527 2q-.001 1.143-.527 1.976-.526.834-1.522 1.288-.988.453-2.373.453m7.207-7.587h2.057l3.028 8.656 3.028-8.656h2.057L137.857 31h-1.651zm-1.109 0h2.049l.372 8.437v3.353h-2.421zm10.34 0h2.056V31h-2.429v-3.353zm12.097 9.895V31h-6.275v-1.895zm-5.482-9.895V31h-2.429V19.21zm4.665 4.802v1.846h-5.458v-1.847zm.809-4.802v1.903h-6.267V19.21zm11.021 0V31h-2.429l-4.737-7.904v7.904h-2.429V19.21h2.429l4.745 7.911v-7.911zm7.141 0V31h-2.42V19.21zm3.629 0v1.903h-9.62V19.21zm1.497 10.996a.92.92 0 0 1 .235-.64q.243-.267.697-.267t.688.267a.9.9 0 0 1 .243.64.9.9 0 0 1-.243.632q-.235.259-.688.259-.454 0-.697-.26a.9.9 0 0 1-.235-.631m11.693-2.956h1.555a5 5 0 0 1-.64 2 3.74 3.74 0 0 1-1.465 1.401q-.948.51-2.365.51-1.037 0-1.886-.388a4.2 4.2 0 0 1-1.45-1.101 5.15 5.15 0 0 1-.939-1.725q-.324-1.012-.324-2.251v-1.174q0-1.24.324-2.243a5 5 0 0 1 .947-1.733 4.2 4.2 0 0 1 1.498-1.11q.874-.388 1.967-.388 1.337 0 2.259.502a3.6 3.6 0 0 1 1.434 1.393q.518.881.64 2.048h-1.555q-.113-.825-.421-1.417a2.2 2.2 0 0 0-.874-.923q-.568-.324-1.483-.324-.785 0-1.385.3-.59.3-.995.85a4 4 0 0 0-.6 1.32 6.7 6.7 0 0 0-.202 1.709v1.19q0 .866.179 1.627.185.762.558 1.336.372.576.948.907.574.324 1.36.324.995 0 1.587-.315.59-.316.89-.907.308-.592.438-1.418m12.761-2.518v.745q0 1.328-.331 2.38-.332 1.055-.956 1.79a4.14 4.14 0 0 1-1.498 1.126q-.865.389-1.944.389-1.044 0-1.918-.39a4.3 4.3 0 0 1-1.507-1.125q-.631-.735-.98-1.79-.348-1.052-.347-2.38v-.745q-.001-1.328.34-2.372.348-1.053.98-1.79a4.2 4.2 0 0 1 1.497-1.134 4.7 4.7 0 0 1 1.919-.388q1.078 0 1.944.389.874.389 1.497 1.133.633.737.964 1.79.341 1.044.34 2.372m-1.546.745v-.761q0-1.052-.219-1.862-.21-.81-.624-1.36a2.7 2.7 0 0 0-1.011-.835 3.1 3.1 0 0 0-1.345-.283q-.728 0-1.32.283a2.8 2.8 0 0 0-1.004.834q-.412.55-.64 1.36-.226.81-.226 1.863v.761q0 1.06.226 1.879.228.81.649 1.368.428.55 1.011.834.592.285 1.32.284.762 0 1.353-.284t.996-.834q.413-.558.624-1.368.21-.819.21-1.879m4.381-6.267h1.514l3.862 9.611 3.854-9.611h1.523L209.802 31h-1.181zm-.495 0h1.336l.219 7.19v4.6h-1.555zm10.398 0h1.336V31h-1.555v-4.6z"/></svg>
